!!!COM: Naldi, Romolo
!!!CDT:
!!!OTL: La giovinetta scorza
!!!PTL: Il primo libro de madrigali a cinque voci
!!!PPP: Venice
!!!PPR: Angelo Gardano
!!!PDT: 1589
!!!PUB-format:
!!!RISM: N 12
!!!rime: 194
!!!AGN: Madrigal
!!!SCT: Trm0194b
!!!SCA: Trm0194b
!!!original-voices: 5
!!!extant-voices: 5
!!!complete: Y
!!!final: F
**kern	**text	**kern	**text	**kern	**text	**kern	**text	**kern	**text
*part5	*part5	*part4	*part4	*part3	*part3	*part2	*part2	*part1	*part1
*staff5	*staff5	*staff4	*staff4	*staff3	*staff3	*staff2	*staff2	*staff1	*staff1
*I"Basso	*	*I"Tenore	*	*I"Quinto	*	*I"Alto	*	*I"Canto	*
*I'B	*	*I'T	*	*I'V	*	*I'A	*	*I'C	*
*oclefF4	*	*oclefC4	*	*oclefC3	*	*oclefC3	*	*oclefC1	*
*clefF4	*	*clefGv2	*	*clefGv2	*	*clefGv2	*	*clefG2	*
*k[b-]	*	*k[b-]	*	*k[b-]	*	*k[b-]	*	*k[b-]	*
*C:	*	*C:	*	*C:	*	*C:	*	*C:	*
*omet(C)	*	*omet(C)	*	*omet(C)	*	*omet(C)	*	*omet(C)	*
*M4/2	*	*M4/2	*	*M4/2	*	*M4/2	*	*M4/2	*
=1	=1	=1	=1	=1	=1	=1	=1	=1	=1
0r	.	0r	.	0r	.	2r	.	2f	La
.	.	.	.	.	.	2f	La	4a	gio-
.	.	.	.	.	.	.	.	4b-y	-vi-
.	.	.	.	.	.	4e	gio-	4cc	-net-
.	.	.	.	.	.	4f	-vi-	4a	-ta
.	.	.	.	.	.	4d	-net-	4b-y	scor-
.	.	.	.	.	.	4A	-ta	[4a	.
=2	=2	=2	=2	=2	=2	=2	=2	=2	=2
0r	.	2r	.	1r	.	2B-y	scor-	4a]	.
.	.	.	.	.	.	.	.	4g	.
.	.	2F	La	.	.	4A	-za,	1a	-za,
.	.	.	.	.	.	4A	La	.	.
.	.	4A	gio-	2f	La	4c	gio-	.	.
.	.	4B-y	-vi-	.	.	4d	-vi-	.	.
.	.	4c	-net-	4e	gio-	4A	-net-	2r	.
.	.	4A	-ta	4f	-vi-	4c	-ta	.	.
=3	=3	=3	=3	=3	=3	=3	=3	=3	=3
1r	.	4B-y	scor-	4d	-net-	2f	scor-	1r	.
.	.	2A	.	4A	-ta	.	.	.	.
.	.	.	.	2B-y	scor-	2g	-za,	.	.
.	.	4G	.	.	.	.	.	.	.
2F	La	2A	-za,	4A	-za,	4c	<La	4f	<La
.	.	.	.	4c	<La	4f	gio-	8a	gio-
.	.	.	.	.	.	.	.	8b-y	-vi-
4E	gio-	2r	.	4c	gio-	4g	-vi-	4cc	-net-
4F	-vi-	.	.	4c	-vi-	4f	-net-	4a	-ta
=4	=4	=4	=4	=4	=4	=4	=4	=4	=4
4D	-net-	1r	.	4d	-net-	4f	-ta	4b-y	scor-
4AA	-ta	.	.	4c	-ta	4e	scor-	2a	.
2BB-y	scor-	.	.	2B-y	scor-	2d	.	.	.
.	.	.	.	.	.	.	.	4g	.
1AA	-za,	2r	.	1c	-za,>	2e	-za,>	1a	-za,>
.	.	4r	.	.	.	2e	Ch'in-	.	.
.	.	4c	Ch'in-	.	.	.	.	.	.
=5	=5	=5	=5	=5	=5	=5	=5	=5	=5
0r	.	4e	-vol-	0r	.	4g	-vol-	2cc	Ch'in-
.	.	4f	-g'il	.	.	4a	-g'il	.	.
.	.	4d	tron-	.	.	4f	tron-	2b-y	-vol-
.	.	4e	-co e i	.	.	4g	-co e i	.	.
.	.	8fL	ra-	.	.	8aL	ra-	2a	-g'il
.	.	8e	.	.	.	8g	.	.	.
.	.	8d	.	.	.	8f	.	.	.
.	.	8cJ	.	.	.	8eJ	.	.	.
.	.	4d	.	.	.	4f	.	4b-y	tron-
.	.	4A	.	.	.	4e	.	[4a	-co e i
=6	=6	=6	=6	=6	=6	=6	=6	=6	=6
2r	.	2B-y	.	2r	.	2d	.	4a]	.
.	.	.	.	.	.	.	.	4g	ra-
4r	.	4A	-mi,	4r	.	2c	-mi	4a	-mi,
4F	Ch'in-	4A	Ch'in-	4c	Ch'in-	.	.	4a	<Ch'in-
4E	-vol-	4c	-vol-	2c	-volg'il	1r	.	4g	-vol-
4F	-g'il	4A	-g'il	.	.	.	.	4a	-g'il
4D	tron-	2d	tron-	2B-y	tron-	.	.	4f	tron-
4E	-co e i	.	.	.	.	.	.	4g	-co e i
=7	=7	=7	=7	=7	=7	=7	=7	=7	=7
8FL	ra-	4c	-co e i	2A	-co e i	1r	.	8aL	ra-
8E	.	.	.	.	.	.	.	8g	.
8D	.	4.d	ra-	.	.	.	.	8f	.
8CJ	.	.	.	.	.	.	.	8eJ	.
4.BB-y	.	.	.	4B-y	ra-	.	.	4d	.
.	.	8c	.	.	.	.	.	.	.
.	.	2B-y	.	2d	.	.	.	2f	.
8AA	.	.	.	.	.	.	.	.	.
8GGL	.	.	.	.	.	2r	.	.	.
8FFJ	.	.	.	.	.	.	.	.	.
4GG	.	4G	.	4B-y	.	.	.	4e	.
4FF	-mi	4A	-mi	2c	-mi	4r	.	2f	-mi>
4F	D'un	4A	D'un	.	.	4c	D'un	.	.
=8	=8	=8	=8	=8	=8	=8	=8	=8	=8
4F	ver-	4A	ver-	4r	.	4d	ver-	1r	.
4E	-de	2c	-de	4G	D'un	4e	-de	.	.
2D	lau-	.	.	4A	ver-	2f	lau-	.	.
.	.	4BnX	lau-	4F	-de	.	.	.	.
2C	-ro,	2c	-ro,	2G	lau-	2e	-ro,	4r	.
.	.	.	.	.	.	.	.	2g	A-
2r	.	4r	.	2c	-ro,	2e	A-	.	.
.	.	4c	A-	.	.	.	.	[4a	-mor
=9	=9	=9	=9	=9	=9	=9	=9	=9	=9
0r	.	2.d	-mor	1r	.	2.f	-mor	4a]	.
.	.	.	.	.	.	.	.	4f	vuol
.	.	.	.	.	.	.	.	4a	ch'io
.	.	4A	vuol	.	.	4f	vuol	4cc	sem-
.	.	4B-y	ch'io	2r	.	4d	ch'io	2f	-pr'a-
.	.	4d	sem-	.	.	4f	sem-	.	.
.	.	2c	-pr'a-	4r	.	2e	-pr'a-	2g	-mi;
.	.	.	.	[4c	A-	.	.	.	.
=10	=10	=10	=10	=10	=10	=10	=10	=10	=10
2F	A-	4A	-mi,	4c]	.	4f	-mi,	0r	.
.	.	4A	<A-	2d	-mor	4f	A-	.	.
2.G	-mor	2.B-y	-mor	.	.	2.d	-mor	.	.
.	.	.	.	4B-y	vuol	.	.	.	.
.	.	.	.	4d	ch'io	.	.	.	.
4D	vuol	4B-y	vuol	4f	sem-	4d	vuol	.	.
4E	ch'io	4G	ch'io	4e	-pr'a-	4.c	ch'io	.	.
4F	sem-	4A	sem-	[4c	.	.	.	.	.
.	.	.	.	.	.	8c	sem-	.	.
=11	=11	=11	=11	=11	=11	=11	=11	=11	=11
2D	-pr'a-	2F	-pr'a-	4c]	.	2d	-pr'a-	2r	.
.	.	.	.	4BnX	.	.	.	.	.
2C	-mi;	2G	-mi;>	2c	-mi;	2e	-mi;	4r	.
.	.	.	.	.	.	.	.	2g	E
1r	.	1r	.	2c	E	2e	E	.	.
.	.	.	.	.	.	.	.	4g	le
.	.	.	.	2c	le	2e	le	4a	te-
.	.	.	.	.	.	.	.	8a	-ne-
.	.	.	.	.	.	.	.	8g	-re
=12	=12	=12	=12	=12	=12	=12	=12	=12	=12
2r	.	2r	.	4d	te-	4a	te-	4f	fron-
.	.	.	.	8d	-ne-	8f	-ne-	4d	-de,
.	.	.	.	8c	-re	8e	-re	.	.
2G	E	4r	.	4B-y	fron-	1d	fron-	4r	.
.	.	2B-y	E	4G	-de,	.	.	2g	<E
2G	le	.	.	1r	.	.	.	.	.
.	.	4B-y	le	.	.	.	.	4g	le
4A	te-	4c	te-	.	.	[2c	.	4e	te-
8F	-ne-	8A	-ne-	.	.	.	.	8f	-ne-
8E	-re	8G	-re	.	.	.	.	8g	-re
=13	=13	=13	=13	=13	=13	=13	=13	=13	=13
2D	fron-	2F	fron-	1r	.	4c]	.	4a	fron-
.	.	.	.	.	.	4BnX	.	4d	.
2C	-de,	2G	-de,	.	.	2c	-de,	2e	-de,>
1r	.	1r	.	2c	Fra	1r	.	4r	.
.	.	.	.	.	.	.	.	4cc	Fra
.	.	.	.	4d	cui	.	.	4b-y	cui
.	.	.	.	4e	va-	.	.	4cc	va-
=14	=14	=14	=14	=14	=14	=14	=14	=14	=14
1r	.	1r	.	4f	-ghi	2r	.	4a	-ghi
.	.	.	.	4d	con-	.	.	4b-y	con-
.	.	.	.	2e	-cen-	4r	.	2g	-cen-
.	.	.	.	.	.	4c	Fra	.	.
4r	.	2F	Fra	2f	-ti	4d	cui,	2f	-ti
4F	Fra	.	.	.	.	4A	<Fra	.	.
4E	cui	4G	cui	2r	.	4c	cui>	2r	.
4F	va-	4A	va-	.	.	4c	va-	.	.
=15	=15	=15	=15	=15	=15	=15	=15	=15	=15
4D	-ghi	4B-y	-ghi	1r	.	4F	-ghi	1r	.
4E-X	con-	4G	con-	.	.	4B-y	con-	.	.
2C	-cen-	2A	-cen-	.	.	2e-i	-cen-	.	.
4BB-y	-ti	4B-y	-ti	4r	.	4d	-ti	4r	.
4F	Fan	4A	Fan	4f	Fan	4r	.	4cc	Fan
4F	gl'au-	4A	gl'au-	4f	gl'au-	2r	.	4cc	gl'au-
4G	-gel-	4B-y	-gel-	4d	-gel-	.	.	4b-y	-gel-
=16	=16	=16	=16	=16	=16	=16	=16	=16	=16
4.A	-let-	4c	-let-	4f	-let-	1r	.	4a	-let-
.	.	4f	-ti al	4c	-ti al	.	.	4cc	-ti al
8G	-ti al	.	.	.	.	.	.	.	.
8F	mor-	8c	mor-	8f	mor-	.	.	8cc	mor-
8EnXi	-mo-	8c	-mo-	8g	-mo-	.	.	8cc	-mo-
8F	-rar	8c	-rar	8f	-rar	.	.	8a	-rar
8C	de'	8c	de'	8e	de'	.	.	8g	de'
2G	ven-	2BnX	ven-	2d	ven-	2r	.	2g	ven-
2C	-ti;	2c	-ti;	2e	-ti;	4r	.	2g	-ti;
.	.	.	.	.	.	4c	E	.	.
=17	=17	=17	=17	=17	=17	=17	=17	=17	=17
1r	.	2G	E	0r	.	4g	l'om-	0r	.
.	.	.	.	.	.	4g	-bra	.	.
.	.	4d	l'om-	.	.	2f	fre-	.	.
.	.	4d	-bra	.	.	.	.	.	.
2C	E	2c	fre-	.	.	4e	-sca, e	.	.
.	.	.	.	.	.	4.g	lie-	.	.
4G	l'om-	4B-y	-sca, e	.	.	.	.	.	.
.	.	.	.	.	.	8fL	.	.	.
4G	-bra	[4d	lie-	.	.	8d	.	.	.
.	.	.	.	.	.	8eJ	.	.	.
=18	=18	=18	=18	=18	=18	=18	=18	=18	=18
2F	fre-	8d]L	.	1r	.	8fL	.	4r	.
.	.	8c	.	.	.	8gJ	.	.	.
.	.	8A	.	.	.	4a	.	4f	E
.	.	8B-yJ	.	.	.	.	.	.	.
2E	-sca, e	8cL	.	.	.	2g	-ta,	4cc	l'om-
.	.	8d	.	.	.	.	.	.	.
.	.	8e	.	.	.	.	.	4cc	-bra
.	.	8cJ	.	.	.	.	.	.	.
8GL	lie-	2d	.	2B-y	E	1r	.	2b-y	fre-
8F	.	.	.	.	.	.	.	.	.
8D	.	.	.	.	.	.	.	.	.
8EJ	.	.	.	.	.	.	.	.	.
8FL	.	2c	-ta	4f	l'om-	.	.	4a	-sca, e
8GJ	.	.	.	.	.	.	.	.	.
[4A	.	.	.	4f	-bra	.	.	[4cc	lie-
=19	=19	=19	=19	=19	=19	=19	=19	=19	=19
8A]L	.	0r	.	2e	fre-	2c	<E	8cc]L	.
8G	.	.	.	.	.	.	.	8b-y	.
8E	.	.	.	.	.	.	.	8g	.
8FJ	.	.	.	.	.	.	.	8aJ	.
2G	.	.	.	4.d	-sca, e	4g	l'om-	8b-yL	.
.	.	.	.	.	.	.	.	8ccJ	.
.	.	.	.	.	.	4g	-bra	2dd	.
.	.	.	.	8e	lie-	.	.	.	.
4F	.	.	.	8fL	.	4a	fre-	.	.
.	.	.	.	8e	.	.	.	.	.
4A	.	.	.	8e	.	4e	-sca, e	2cc	.
.	.	.	.	16d	.	.	.	.	.
.	.	.	.	16cJ	.	.	.	.	.
2G	.	.	.	2d	.	2g	lie-	.	.
.	.	.	.	.	.	.	.	4bnX	.
=20	=20	=20	=20	=20	=20	=20	=20	=20	=20
2C	-ta	4r	.	2e	-ta	4g	-ta	4cc	-ta,
.	.	4c	Che	.	.	4e	Che	4g	<E
2r	.	4A	dal-	2r	.	4f	dal-	4a	l'om-
.	.	4F	-le	.	.	4f	-le	4a	-bra
1r	.	2B-y	fo-	1r	.	2d	fo-	2f	fre-
.	.	2A	-glie a-	.	.	2f	-glie a-	2a	-sca, e
=21	=21	=21	=21	=21	=21	=21	=21	=21	=21
2r	.	2G	-cer-	2r	.	2e-X	-cer-	1b-y	lie-
4r	.	2G	-be	4r	.	2d	-be,	.	.
4G	Che	.	.	4g	Che	.	.	.	.
4A	dal-	1r	.	4e	dal-	4c	Che	4a	-ta>
4A	-le	.	.	4c	-le	2f	dal-	4cc	Che
[2F	fo-	.	.	[2f	fo-	.	.	4a	dal-
.	.	.	.	.	.	4c	-le	4f	-le
=22	=22	=22	=22	=22	=22	=22	=22	=22	=22
2F]	.	0r	.	2f]	.	2c	fo-	2cc	fo-
2A	-glie a-	.	.	2e	-glie a-	2c	-glie a-	2cc	-glie a-
1B-y	-cer-	.	.	1d	-cer-	1g	-cer-	1dd	-cer-
=23	=23	=23	=23	=23	=23	=23	=23	=23	=23
2A	-be	4r	.	4e	-be	2a	-be	2cc	-be
.	.	2c	Ca-	4e	Ca-	.	.	.	.
2F	Ca-	.	.	4A	-de	2r	.	2a	Ca-
.	.	2A	-de	4c	con	.	.	.	.
2D	-de	.	.	4F	dol-	1r	.	2f	-de
.	.	4F	con	4A	-ci	.	.	.	.
4BB-y	con	4F	dol-	2B-y	son-	.	.	4d	con
[4BB-y	dol-	[4D	-ci	.	.	.	.	[4d	dol-
=24	=24	=24	=24	=24	=24	=24	=24	=24	=24
4BB-]	.	4D]	.	2F	-ni in	0r	.	4d]	.
4AA	-ci	2F	son-	.	.	.	.	4c	-ci
2GG	son-	.	.	4G	grem-	.	.	2B-y	son-
.	.	4E	-ni in	4G	-bo a	.	.	.	.
4FF	-ni in	4.F	grem-	2c	l'her-	.	.	4A	-ni in
2F	grem-	.	.	.	.	.	.	2a	grem-
.	.	8G	.	.	.	.	.	.	.
.	.	4A	.	4f	-ba,	.	.	.	.
4G	-bo a	4G	-bo a	4d	a	.	.	4b-y	-bo a
=25	=25	=25	=25	=25	=25	=25	=25	=25	=25
2E-X	l'er-	2G	l'her-	4d	l'her-	1r	.	2g	l'her-
.	.	.	.	4c	.	.	.	.	.
2D	-ba.	2A	-ba.	2d	-ba.	.	.	2f	-ba.
1r	.	1B-y	Qui-	1f	Qui-	1b-y	Qui-	1dd	Qui-
=26	=26	=26	=26	=26	=26	=26	=26	=26	=26
0r	.	2.F	-vi	2.f	-vi	2.a	-vi	2.cc	-vi
.	.	4c	le	4e	le	4g	le	4cc	le
.	.	8AL	re-	2.e	re-	2a	re-	2.cc	re-
.	.	8G	.	.	.	.	.	.	.
.	.	8A	.	.	.	.	.	.	.
.	.	8B-yJ	.	.	.	.	.	.	.
.	.	4c	.	.	.	4g	.	.	.
.	.	4F	-ti a-	4c	-ti a-	4f	-ti a-	4a	-ti a-
=27	=27	=27	=27	=27	=27	=27	=27	=27	=27
2r	.	2C	-scon-	2c	-scon-	2e	-scon-	2g	-scon-
4r	.	2C	-de,	4c	-de,	4e	-de,	4g	-de,
4C	Né'n	.	.	4G	Né'n	4c	Né'n	4e	Né'n
2.BB-y	par-	1r	.	[1B-y	par-	[1d	par-	[1f	par-
4C	.	.	.	.	.	.	.	.	.
=28	=28	=28	=28	=28	=28	=28	=28	=28	=28
2D	.	0r	.	2B-]	.	2d]	.	2f]	.
2D	-te	.	.	2A	-te	2d	-te	2f	-te
2C	più	.	.	2c	più	2e	più	2g	più
2BB-y	se-	.	.	[2G	se-	2d	se-	2g	se-
=29	=29	=29	=29	=29	=29	=29	=29	=29	=29
1AA	-cre-	0r	.	2G]	.	2c	-cre-	1cc	-cre-
.	.	.	.	2F#X	-cre-	2A	.	.	.
2GG	-ta,	.	.	2G	-ta,	2d	-ta,	2b-y	-ta,
2r	.	.	.	2r	.	4r	.	2g	Stan-
.	.	.	.	.	.	4c	Stan-	.	.
=30	=30	=30	=30	=30	=30	=30	=30	=30	=30
1r	.	1r	.	2c	Stan-	4A	-co	4a	-co
.	.	.	.	.	.	4F	di	4a	di
.	.	.	.	4e	-co	4c	sa-	4g	sa-
.	.	.	.	2g	di	4c	-et-	4e	-et-
2r	.	2r	.	.	.	2d	-tar,	8fL	-tar,
.	.	.	.	.	.	.	.	8g	.
.	.	.	.	2fnX	sa-	.	.	8a	.
.	.	.	.	.	.	.	.	8b-yJ	.
4r	.	2c	Stan-	.	.	4r	.	2cc	.
4C	Stan-	.	.	4e	-et-	4c	<Stan-	.	.
=31	=31	=31	=31	=31	=31	=31	=31	=31	=31
4D	-co	4A	-co	2f	-tar,	4F	-co	4r	.
4D	di	4F	di	.	.	4A	di	4f	<Stan-
4C	sa-	4c	sa-	2r	.	4A	sa-	4e	-co
4AA	-et-	4c	-et-	.	.	4A	-et-	4e	di
8BB-yL	-tar,	2d	-tar,	2r	.	2F	-tar,>	8d	sa-
8C	.	.	.	.	.	.	.	8e	-et-
8D	.	.	.	.	.	.	.	8fL	-tar,>
8EJ	.	.	.	.	.	.	.	8gJ	.
2F	.	2r	.	2c	<Stan-	4r	.	8aL	.
.	.	.	.	.	.	.	.	8b-yJ	.
.	.	.	.	.	.	4f	Stan-	[4cc	.
=32	=32	=32	=32	=32	=32	=32	=32	=32	=32
0r	.	1r	.	4A	-co	4a	-co	4cc]	.
.	.	.	.	4F	di	4a	di	4cc	<Stan-
.	.	.	.	4c	sa-	4g	sa-	4.cc	-co
.	.	.	.	4c	-et-	4e	-et-	.	.
.	.	.	.	.	.	.	.	8b-y	di
.	.	2r	.	2d	-tar,>	8fL	-tar,	8a	sa-
.	.	.	.	.	.	8g	.	8g	-et-
.	.	.	.	.	.	8a	.	4f	-tar,>
.	.	.	.	.	.	8fJ	.	.	.
.	.	2G	Stan-	4r	.	2g	.	4r	.
.	.	.	.	4d	Stan-	.	.	4g	Stan-
=33	=33	=33	=33	=33	=33	=33	=33	=33	=33
1r	.	4A	-co	4.c	-co	4r	.	4e	-co
.	.	4A	di	.	.	4f	<Stan-	4c	di
.	.	.	.	8A	di	.	.	.	.
.	.	4G	sa-	4B-y	sa-	4d	-co	4g	sa-
.	.	4E	-et-	4G	-et-	4c	di	4g	-et-
2r	.	8FL	-tar,	2c	-tar,	4A	sa-	2a	-tar,
.	.	8G	.	.	.	.	.	.	.
.	.	8A	.	.	.	4F	-et-	.	.
.	.	8B-yJ	.	.	.	.	.	.	.
2C	<Stan-	2c	.	4r	.	2G	-tar,>	2r	.
.	.	.	.	4G	<Stan-	.	.	.	.
=34	=34	=34	=34	=34	=34	=34	=34	=34	=34
4AA	-co	4r	.	4A	-co	2r	.	4r	.
4FF	di	4c	<Stan-	4A	di	.	.	4f	<Stan-
4C	sa-	4c	-co	4G	sa-	4r	.	4e	-co
4C	-et-	4c	di	4E	-et-	4G	Stan-	4e	di
2D	-tar,>	4A	sa-	8FL	-tar,>	4F	-co	8d	sa-
.	.	.	.	8G	.	.	.	8eL	-et-
.	.	4F	-et-	8A	.	4F	di	8f	.
.	.	.	.	8B-yJ	.	.	.	8gJ	.
2r	.	8CL	-tar,>	[2c	.	4E	sa-	4a	.
.	.	8D	.	.	.	.	.	.	.
.	.	8E	.	.	.	4e	-et-	4g	.
.	.	8FJ	.	.	.	.	.	.	.
=35	=35	=35	=35	=35	=35	=35	=35	=35	=35
1r	.	1G	.	2c]	.	1d	-tar,	1g	-tar,>
.	.	.	.	2BnX	.	.	.	.	.
1C	A-	2r	.	2r	.	2r	.	2r	.
.	.	2G	A-	2G	A-	2c	A-	2e	A-
=36	=36	=36	=36	=36	=36	=36	=36	=36	=36
2BB-y	-mor	2F	-mor	2B-y	-mor,	2d	-mor,	2f	-mor
2BB-y	s'ac-	1B-y	s'ac-	4r	.	4r	.	2d	s'ac-
.	.	.	.	4G	A-	4D	A-	.	.
2.AA	-que-	.	.	[1A	-mor	2E	-mor	[1c	-que-
.	.	[2A	-que-	.	.	[2C	s'ac-	.	.
4BB-y	.	.	.	.	.	.	.	.	.
=37	=37	=37	=37	=37	=37	=37	=37	=37	=37
0C	.	2A]	.	2A]	.	2C]	.	0c]	.
.	.	4G	.	2A	s'ac-	2.c	-que-	.	.
.	.	4F	.	.	.	.	.	.	.
.	.	4G	.	1G	-que-	.	.	.	.
.	.	2A	.	.	.	8B-yL	.	.	.
.	.	.	.	.	.	8AJ	.	.	.
.	.	.	.	.	.	2G	.	.	.
.	.	4G	.	.	.	.	.	.	.
=38	=38	=38	=38	=38	=38	=38	=38	=38	=38
2FF	-ta,	2A	-ta,	2F	-ta,	2A	-ta,	2c	-ta,
2r	.	2r	.	4r	.	2r	.	2g	Stan-
.	.	.	.	4c	Stan-	.	.	.	.
1r	.	1r	.	4A	-co	2c	Stan-	4a	-co
.	.	.	.	4F	di	.	.	4a	di
.	.	.	.	4c	sa-	4e	-co	4g	sa-
.	.	.	.	4c	-et-	[4g	di	4e	-et-
=39	=39	=39	=39	=39	=39	=39	=39	=39	=39
2r	.	2r	.	2d	-tar,	4g]	.	8fL	-tar,
.	.	.	.	.	.	.	.	8g	.
.	.	.	.	.	.	2f	sa-	8a	.
.	.	.	.	.	.	.	.	8b-yJ	.
4r	.	2c	Stan-	4r	.	.	.	2cc	.
4C	Stan-	.	.	4c	<Stan-	4e	-et-	.	.
4D	-co	4A	-co	4F	-co	2f	-tar,	4r	.
4D	di	4F	di	4A	di	.	.	4f	<Stan-
4C	sa-	4c	sa-	4A	sa-	2r	.	4e	-co
4AA	-et-	4c	-et-	4A	-et-	.	.	4e	di
=40	=40	=40	=40	=40	=40	=40	=40	=40	=40
8BB-yL	-tar,	2d	-tar,	2F	-tar,>	2r	.	8d	sa-
8C	.	.	.	.	.	.	.	8e	-et-
8D	.	.	.	.	.	.	.	8fL	-tar,>
8EJ	.	.	.	.	.	.	.	8gJ	.
2F	.	2r	.	4r	.	2c	<Stan-	8aL	.
.	.	.	.	.	.	.	.	8b-yJ	.
.	.	.	.	4f	Stan-	.	.	2cc	.
1r	.	1r	.	4a	-co	4A	-co	.	.
.	.	.	.	4a	di	4F	di	4cc	<Stan-
.	.	.	.	4g	sa-	4c	sa-	4.cc	-co
.	.	.	.	4e	-et-	4c	-et-	.	.
.	.	.	.	.	.	.	.	8b-y	di
=41	=41	=41	=41	=41	=41	=41	=41	=41	=41
0r	.	2r	.	8fL	-tar,	2d	-tar,>	8a	sa-
.	.	.	.	8g	.	.	.	8g	-et-
.	.	.	.	8a	.	.	.	4f	-tar,>
.	.	.	.	8fJ	.	.	.	.	.
.	.	2G	<Stan-	2g	.	4r	.	4r	.
.	.	.	.	.	.	4d	Stan-	4g	Stan-
.	.	4A	-co	4r	.	4.c	-co	4e	-co
.	.	4A	di	4f	<Stan-	.	.	4c	di
.	.	.	.	.	.	8A	di	.	.
.	.	4G	sa-	4d	-co	4B-y	sa-	4g	sa-
.	.	4E	-et-	4c	di	4G	-et-	4g	-et-
=42	=42	=42	=42	=42	=42	=42	=42	=42	=42
2r	.	8FL	-tar,>	4A	sa-	2c	-tar,	2a	-tar,
.	.	8G	.	.	.	.	.	.	.
.	.	8A	.	4F	-et-	.	.	.	.
.	.	8B-yJ	.	.	.	.	.	.	.
2C	<Stan-	2c	.	2G	-tar,>	4r	.	2r	.
.	.	.	.	.	.	4G	<Stan-	.	.
4AA	-co	4r	.	2r	.	4A	-co	4r	.
4FF	di	4c	<Stan-	.	.	4A	di	4f	<Stan-
4C	sa-	4c	-co	4r	.	4G	sa-	4e	-co
4C	-et-	4c	di	4G	<Stan-	4E	-et-	4e	di
=43	=43	=43	=43	=43	=43	=43	=43	=43	=43
2D	-tar,>	4A	sa-	4F	-co	8FL	-tar,>	8d	sa-
.	.	.	.	.	.	8G	.	8eL	-et-
.	.	4F	-et-	4F	di	8A	.	8f	.
.	.	.	.	.	.	8B-yJ	.	8gJ	.
2r	.	8CL	-tar,>	4E	sa-	2.c	.	4a	.
.	.	8D	.	.	.	.	.	.	.
.	.	8E	.	4e	-et-	.	.	4g	.
.	.	8FJ	.	.	.	.	.	.	.
2r	.	2G	.	2d	-tar,>	.	.	1g	-tar,>
.	.	.	.	.	.	8BnXL	.	.	.
.	.	.	.	.	.	8AJ	.	.	.
2G	Stan-	2d	Stan-	4r	.	2BnX	.	.	.
.	.	.	.	4g	Stan-	.	.	.	.
=44	=44	=44	=44	=44	=44	=44	=44	=44	=44
4A	-co	4c	-co	4e	-co	2r	.	0r	.
4A	di	4f	di	4c	di	.	.	.	.
4G	sa-	4d	sa-	4.g	sa-	4r	.	.	.
4E	-et-	4e	-et-	.	.	4g	<Stan-	.	.
.	.	.	.	8g	-et-	.	.	.	.
8FL	-tar,	8AL	-tar,	2a	-tar,	4f	-co	.	.
8G	.	8B-y	.	.	.	.	.	.	.
8A	.	8c	.	.	.	4e	di	.	.
8B-yJ	.	8dJ	.	.	.	.	.	.	.
[2c	.	[2e	.	2r	.	4a	sa-	.	.
.	.	.	.	.	.	4g	-et-	.	.
=45	=45	=45	=45	=45	=45	=45	=45	=45	=45
2c]	.	2e]	.	2r	.	8cL	-tar,>	2r	.
.	.	.	.	.	.	8d	.	.	.
.	.	.	.	.	.	8e	.	.	.
.	.	.	.	.	.	8fJ	.	.	.
2C	A-	2E	A-	2c	A-	4g	.	2e	A-
.	.	.	.	.	.	4G	A-	.	.
2BB-y	-mor	2D	-mor	2d	-mor,	2B-y	-mor,	2f	-mor
2BB-y	s'ac-	[2G	s'ac-	4r	.	4r	.	2d	s'ac-
.	.	.	.	4D	A-	4G	A-	.	.
=46	=46	=46	=46	=46	=46	=46	=46	=46	=46
2.AA	-que-	2G]	.	2F	-mor	1.A	-mor	[0c	-que-
.	.	1F	-que-	1C	s'ac-	.	.	.	.
4BB-y	.	.	.	.	.	.	.	.	.
[1C	.	.	.	.	.	.	.	.	.
.	.	4E	.	[2c	-que-	2A	s'ac-	.	.
.	.	4D	.	.	.	.	.	.	.
=47	=47	=47	=47	=47	=47	=47	=47	=47	=47
1C]	.	4E	.	4c]	.	1G	-que-	1c]	.
.	.	2F	.	8B-yL	.	.	.	.	.
.	.	.	.	8AJ	.	.	.	.	.
.	.	.	.	2G	.	.	.	.	.
.	.	4E	.	.	.	.	.	.	.
1FFl	-ta.	1Fl	-ta.	1Al	-ta.	1Fl	-ta.	1cl	-ta.
==	==	==	==	==	==	==	==	==	==
*-	*-	*-	*-	*-	*-	*-	*-	*-	*-
!!!system-decoration: [*]
!!!RDF**kern: i = editorial accidental
!!!RDF**kern: l = terminal long
!!!ENC: Emiliano Ricciardi
!!!END: 2019/01/01
!!!EED: Ricciardi, Emiliano
!!!EEV: 2019/01/14
!!!YEC: Copyright 2018 Emiliano Ricciardi, All Rights Reserved
!!!ONB: Translated from MusicXML on 2019/01/14 and edited by Craig Stuart Sapp
!!@@BEGIN:	VERSEDATA
!!@SOLERTI:	194
!!@CATALOGNUM:	Trm0194
!!@LAST_MODIFIED: 2020/07/12
!!@TITLE:		La giovinetta scorza
!!@GENRE:		madrigale
!!@MANUSRC:	Ts<sub>2</sub>, V<sub>13/TS2</sub>
!!@PRINTSRC:	22, 26, 31, 35, 69, 78, 141, 166, 169
!!@@BEGIN:	VERSES
!!@ABOUTIT:	Nel medesimo soggetto. (i.e., "Questo sonetto con l'altro accompagnano un libro di madrigali dedicati a la signora Laura." Rime 193)
!!@ABOUTEN:	On the same subject. (i.e., "This sonnet and the other accompany a book of madrigals dedicated to lady Laura." Rime 193).
!!@EDITOR:	Solerti, Angelo
!!@EDITION_TITLE: Le Rime di Torquato Tasso
!!@EDITION_LOC:	Bologna
!!@EDITION_PUB:	Romagnoli-Dall’Acqua
!!@EDITION_DATE:  1898-1902
!!@EDITION_VOL:	2
!!@EDITION_PAGE:  286
!!@TRANSLATOR:	Emiliano Ricciardi and Amyrose McCue Gill
!!@VERSE:
!!	La giovinetta scorza,
!!	Ch'involge il tronco e i rami
!!	D'un verde lauro, Amor vuol ch'io sempre ami;
!!	E le tenere fronde,
!!	Fra cui vaghi concenti
!!	Fan gli augelletti al mormorar de' venti;
!!	E l'ombra fresca, e lieta
!!	Che da le foglie acerbe
!!	Cade co' dolci sonni in grembo a l'erbe.
!!	Quivi le reti asconde,
!!	Né 'n parte più secreta,
!!	Stanco di saettare, Amor s'acqueta.
!!@TVERSE:
!!	The youthful bark
!!	That covers the trunk and the branches
!!	Of a green laurel, Love wants that I always love it;
!!	And the tender fronds,
!!	Among which lovely harmonies
!!	The little birds sing to the murmuring of the breezes;
!!	And the cool and happy shade
!!	That from the green leaves
!!	Falls with sweet reveries onto the grass.
!!	Here he hides his nets,
!!	Nor in a more secret place,
!!	Tired of shooting, Love calms down.
!!@@END:		VERSES
!!@OTHER_CRIT_ED:   None
!!@ATTRIBUTION_ABOUT:	Secure
!!		<br>
!!		Among other sources (see Literary Sources), this poem survives in a copy with Tasso's autograph annotations of the print <i>Rime et prose del Signor Torquato Tasso. Parte terza. Novamente poste in luce</i>
!!(Venetia: Giulio Vasalini, 1583)
!!@DATING:	1583
!!@DEDICATEE:	Peperara, Laura
!!@COMMENTARY:
!!@@END:		VERSEDATA
!!@@BEGIN:	SETTING
!!@CATALOGNUM:	Trm0194b
!!@RIMETITLE:	La giovinetta scorza
!!@SOLERTI:	194
!!@COMPOSER:	Naldi, Romolo
!!@PRINCEPSTITLE:	Il primo libro de madrigali a cinque voci
!!@PRINCEPSLOC:	Venetia
!!@NORMLOC:	Venice
!!@NORMPUB:	Angelo Gardano
!!@NORMPUBSHORT:	Gardano
!!@PRINCEPSPUB:	Gardano
!!@PRINCEPSYEAR:	1589
!!@PRINCEPSRISM:	N 12
!!@REPRINTS:	
!!@OVOICES:	5
!!@EXTANTVOICES:	5
!!@PARTBOOKS:	
!!@EXTPARTBOOKS:	
!!@OCLEFS:	C1,C3,C3,C4,F4
!!@OMENSURATION:	C
!!@OKEYSIG:	b-
!!@FINAL:	F
!!@TIMPEDITOR:	Ricciardi, Emiliano
!!@NOTE:		
!!@@END:		SETTING
